X:1
T:Title
%%score { 1 | 2 }
L:1/8
M:2/2
K:G
V:1 treble nm="Grand Piano"
V:2 bass 
V:1
 z4[Q:1/4=168] D4 | G6 G2 | c4 B4 | [FA]8 | G4 G2 A2 | B4 B4 | B4 A2 G2 |[M:2/4] A4 | D4 | %9
[M:4/4] [B,DG]6 [B,DG]2 | [CGc]4 [DGB]4 | [DFA]8 | [DG]4 [=Fd]4 | [Ed]4 [EGc]4 | [CFA]6 [DFB]2 | %15
[M:6/4] .[B,G]6 z6 |[M:4/4] [EGc]8 | [DGB]8 |] %18
V:2
 z4 D,4 | [G,B,D]6 [G,B,]2 | [G,EG]4 [G,DG]4 | [D,C]8 | [G,B,]4 [B,D]2 [A,C]2 | [G,B,D]4 [F,A,D]4 | %6
 [E,G,E]4 [E,G,^C]4 |[M:2/4] [D,F,D]4 | D,4 |[M:4/4] G,6 F,2 | E,4 D,4 | C,8 | B,,4 [B,,G,]4 | %13
 [C,G,]4 C,4 | D,6 D,2 |[M:6/4] .G,,6 z6 |[M:4/4] C,8 | G,,8 |] %18

